X:1
T:Beati eritis-Croce
T:James Gibb editions
T:#
%%score [ 1 2 3 4 ]
L:1/8
Q:1/4=200
M:none
K:C
V:1 treble nm="Soprano" snm="S"
V:2 treble nm="Alto" snm="A"
V:3 treble-8 nm="Tenor" snm="T"
V:4 bass nm="Bass" snm="B"
V:1
"^Giovanni Croce\n(1557-1609)""^Beati eritis" z8 G8 | c4 d4 c4 B4 | d8 z4 B4 | B4 A4 B4 G4 | %4
w: Be-|a- ti e- ri-|tis, be-|a- ti e- ri-|
 A8 z4 A4 | A4 B4 c6 c2 | G4 A8 G4- | G4 G8 ^F4 | G8 z8 | G4 A4 B4 c4- | c4 B4 A8 | B6 A2 G8- | %12
w: tis, cum|ma- le- di- xe-|rint vo- bis|* ho- mi-|nes,|et per- se- cu\-|* ti vos|fu- e- rint,|
 G8 z4 G4 | c6 c2 c4 c4- | c4 B4 c8 | A4 G4 (A6 B2 | c4) A4 G8- | G8 z4 G4 | c6 c2 c4 c4- | %19
w: * et|di- xe- rint o\-|* mne ma-|lum ad- ver\- *|* sum vos,|* et|di- xe- rint o\-|
 c4 B4 c4 A4 | c4 c8 c4 | B8 z8 | z16 | G6 G2 A4 G4 | G8 A8 | %25
w: * mne ma- lum|ad- ver- sum|vos||men- ti- en- tes|pro- pter|
[M:3/1][Q:1/4=400][Q:1/4=400][Q:1/4=400][Q:1/4=400] G16 B8 |: A16 B8 | c8 A8 G8 | G16 G8 | %29
w: me. Gau-|de- te|et ex- sul-|ta- te|
 G8 c8 c8 | c24 | A8 A16 | A8 A8 B8 | c12 d4 e8 |[M:3/1] d8 (d8 ^c8) | d8 B8 =c8 | A12 G4 A8 | %37
w: quo- ni- am|mer-|ces ve-|stra co- pi-|o- sa est|in coe\- *|lis, co- pi-|o- sa est|
 G8 (G8 ^F8) |1 G16 B8 :|2[Q:1/4=194] G16- ||[Q:1/4=184] G16 |[Q:1/4=174] G16 | %42
w: in coe\- *|lis. Gau\-|lis.|||
[Q:1/4=170] !fermata!G16 |] %43
w: |
V:2
 D8 (E6 F2 | G12) G4 | A6 A2 G8 | z4 D4 G4 D4 | F4 E4 D4 ^F4 | ^F4 G4 G6 G2 | E4 =F8 D4 | %7
w: Be- a\- *|* ti|e- ri- tis,|be- a- ti|e- ri- tis, cum|ma- le- di- xe-|rint vo- bis|
 E4 C4 D8- | D8 z4 D4 | E4 ^F4 G4 E4- | E4 G4 G4 ^F4 | G8 z8 | z4 C4 G6 G2 | G4 G8 F4 | G12 F4- | %15
w: ho- mi- nes,|* et|per- se- cu- ti|* vos fu- e-|rint,|et di- xe-|rint o- mne|ma- lum|
 F4 G4 F4 F4 | E8 z8 | z4 C4 G6 G2 | G4 G8 F4 | G12 F4 | A8 G4 ^F4 | G8 z8 | z16 | C6 C2 E4 D4 | %24
w: * ad- ver- sum|vos,|et di- xe-|rint o- mne|ma- lum|ad- ver- sum|vos||men- ti- en- tes|
 (E2 F2 G8) ^F4 |[M:3/1] G16 G8 |: ^F16 G8 | G8 =F8 D8 | E16 E8 | E8 G8 G8 | (A16 G8) | F8 E16 | %32
w: pro\- * * pter|me. Gau-|de- te|et ex- sul-|ta- te|quo- ni- am|mer\- *|ces ve-|
 ^F8 F8 G8 | G12 G4 c8 |[M:3/1] A8 A16 | A8 G8 G8 | F12 G4 F8 | D8 D16 |1 D16 G8 :|2 D4 D8 D4 || %40
w: stra co- pi-|o- sa est|in coe-|lis, co- pi-|o- sa est|in coe-|lis. Gau\-|lis, co- pi-|
 G6 F2 E4 D4 | (C6 D2 E8) | !fermata!D16 |] %43
w: o- sa est in|coe\- * *|lis.|
V:3
 B8 (c6 d2 | e4) d4 (e2 f2 g4- | g4) ^f4 g4 d4 | d8 d4 d4- | d4 ^c4 d8 | z4 d4 e4 e4 | %6
w: Be- a\- *|* ti e\- * *|* ri- tis, be-|a- ti e\-|* ri- tis,|cum ma- le-|
 c6 c2 c4 B4- | B4 G4 B4 A4 | G4 g4 f4 f4 | (e4 d2 c2 d4) c4- | c4 d4 d6 d2 | G4 d4 e6 e2 | %12
w: di- xe- rint vo\-|* bis ho- mi-|nes, et per- se-|cu\- * * * ti|* vos fu- e-|rint, et di- xe-|
 e4 e8 d4 | (e6 d2 c2 B2 c2 d2 | e4) d4 e4 (A2 B2 | c2 d2 e4 A4) d4 | c4 c4 e6 e2 | e4 e8 d4 | %18
w: rint o- mne|ma\- * * * * *|* lum ad- ver\- *|* * * * sum|vos, et di- xe-|rint o- mne|
 (e6 d2 c2 B2 c2 d2 | e4 d4) e4 c4 | (f4 e2 d2 e4) c4 | d4 g8 e4 | d4 g4 f4 d4 | e8 c4 B4 | %24
w: ma\- * * * * *|* * lum ad-|ver\- * * * sum|vos men- ti-|en- tes pro- pter|me, men- ti-|
 c4 e4 d6 d2 |[M:3/1][K:treble-8] G16 d8 |: d16 d8 | e8 c8 B8 | c16 c8 | c8 e8 e8 | (f8 e4 d4 e8) | %31
w: en- tes pro- pter|me. Gau-|de- te|et ex- sul-|ta- te|quo- ni- am|mer\- * * *|
 d8 (d8 ^c8) | d8 d8 d8 | e12 d4 g8 |[M:3/1][K:treble-8] f8 e16 | d8 d8 e8 | c12 c4 c8 | B8 A16 |1 %38
w: ces ve\- *|stra co- pi-|o- sa est|in coe-|lis, co- pi-|o- sa est|in coe-|
 G16 d8 :|2 G8 z4 B4- || B4 B4 c4 d4 | e6 d2 c8 | !fermata!B16 |] %43
w: lis. Gau\-|lis, co\-|* pi- o- sa|est in coe-|lis.|
V:4
 G,8 C8- | C4 B,4 C4 E4 | D4 D,4 G,8- | G,4 ^F,4 G,4 B,4 | A,8 z4 D4 | D4 G,4 C6 C2 | C4 F,8 G,4 | %7
w: Be- a\-|* ti e- ri-|tis, be- a\-|* ti e- ri-|tis, cum|ma- le- di- xe-|rint vo- bis|
 E,6 E,2 D,8 | z4 G,4 A,4 B,4 | C4 A,4 G,4 A,4- | A,4 G,4 D,8 | z4 G,4 C6 C2 | C4 C8 B,4 | %13
w: ho- mi- nes,|et per- se-|cu- ti vos fu\-|* e- rint,|et di- xe-|rint o- mne|
 (C6 B,2 A,8) | G,8 E,4 F,4- | F,4 E,4 D,8 | z4 A,4 C6 C2 | C4 C8 B,4 | (C6 B,2 A,8) | %19
w: ma\- * *|lum ad- ver\-|* sum vos,|et di- xe-|rint o- mne|ma\- * *|
 G,8 E,4 (F,2 G,2 | A,2 B,2 C8) A,4 | G,8 C6 C2 | B,4 G,4 A,4 B,4 | C8 z8 | z16 |[M:3/1] z16 G,8 |: %26
w: lum ad- ver\- *|* * * sum|vos men- ti-|en- tes pro- pter|me.||Gau-|
 D,16 G,8 | E,8 F,8 G,8 | C,16 C,8 | C12 C4 C8 | (F,4 G,4 A,4 B,4 C8) | D8 A,16 | D,8 D8 G,8 | %33
w: de- te|et ex- sul-|ta- te|quo- ni- am|mer\- * * * *|ces ve-|stra co- pi-|
 C12 B,4 C8 |[M:3/1] D8 A,16 | D,8 G,8 C,8 | F,12 E,4 F,8 | G,8 D,16 |1 G,16 G,8 :|2 G,4 G,8 G,4 || %40
w: o- sa est|in coe-|lis, co- pi-|o- sa est|in coe-|lis. Gau\-|lis, co- pi-|
 E,6 D,2 C,4 B,,4 | C,16 | !fermata!G,16 |] %43
w: o- sa est in|coe-|lis.|

